public/assets/images/securitysafe.svg

<svg width="60" height="60" viewBox="0 0 60 60" fill="none" xmlns="http://www.w3.org/2000/svg">
<path d="M52.2751 27.8008C52.2751 40.0258 43.4001 51.4758 31.2751 54.8258C30.4501 55.0508 29.5501 55.0508 28.7251 54.8258C16.6001 51.4758 7.7251 40.0258 7.7251 27.8008V16.8258C7.7251 14.7758 9.2751 12.4508 11.2001 11.6758L25.1251 5.97578C28.2501 4.70078 31.7751 4.70078 34.9001 5.97578L48.8251 11.6758C50.7251 12.4508 52.3001 14.7758 52.3001 16.8258L52.2751 27.8008Z" stroke="#FF588A" stroke-width="3" stroke-linecap="round" stroke-linejoin="round"/>
<path d="M30 31.25C31.3261 31.25 32.5979 30.7232 33.5355 29.7855C34.4732 28.8479 35 27.5761 35 26.25C35 24.9239 34.4732 23.6521 33.5355 22.7145C32.5979 21.7768 31.3261 21.25 30 21.25C28.6739 21.25 27.4021 21.7768 26.4645 22.7145C25.5268 23.6521 25 24.9239 25 26.25C25 27.5761 25.5268 28.8479 26.4645 29.7855C27.4021 30.7232 28.6739 31.25 30 31.25ZM30 31.25V38.75" stroke="#FF588A" stroke-width="3" stroke-miterlimit="10" stroke-linecap="round" stroke-linejoin="round"/>
</svg>

<svg xmlns="http://www.w3.org/2000/svg" width="60" height="60" fill="none"><path stroke="#FF588A" stroke-linecap="round" stroke-linejoin="round" stroke-width="3" d="M52.275 27.8c0 12.226-8.875 23.676-21 27.026a4.901 4.901 0 0 1-2.55 0c-12.125-3.35-21-14.8-21-27.025V16.826c0-2.05 1.55-4.375 3.475-5.15l13.925-5.7a12.968 12.968 0 0 1 9.775 0l13.925 5.7c1.9.775 3.475 3.1 3.475 5.15L52.275 27.8Z"/><path stroke="#FF588A" stroke-linecap="round" stroke-linejoin="round" stroke-miterlimit="10" stroke-width="3" d="M30 31.25a5 5 0 1 0 0-10 5 5 0 0 0 0 10Zm0 0v7.5"/></svg>
